X:1
T:Title
%%score { ( 1 3 ) | ( 2 4 ) }
L:1/8
M:3/4
K:Ab
V:1 treble nm="Grand Piano"
V:3 treble 
V:2 bass 
V:4 bass 
V:1
 z2 z2[Q:1/4=100] [CE]2 | z2 z2 .c2 | [EA]4 [Ec]2 | B2 A2 F2 | z2 z2 E2 | [A,EA]4 cB | A3 B [Ec]2 | %7
[M:2/4] e4 |[M:1/4] E2 |[M:3/4] [EA]4 cB | [EA]4 [Ec]2 | B2 z2 [A,=DF]2 | [G,E]4 [Ge]2 | %13
 [CAe]2 [Ec]2 [EA][FB] | [Ec]4 [DB]2 |[M:2/4] [CA]4 |] %16
V:2
 z2 z2 [A,,A,]2 | [A,,E,]4 [A,,A,][B,,G,] | [C,A,]4 [A,,A,]2 | [D,F,D]4 [D,A,D]2 | %4
 [A,,A,]4 [E,G,]D, | C,4 [A,,A,][B,,G,] | [C,A,]3 [B,,G,] [A,,A,]2 |[M:2/4] [E,G,E]4 | %8
[M:1/4] [E,G,]2 |[M:3/4] [C,A,]4 [A,,A,][B,,G,] | [C,A,]4 [A,,A,]2 | z2 A2 B,,2 | E,4 [E,B,]2 | %13
 z2 A,2 C,D, | [E,A,]4 [E,G,]2 |[M:2/4] [A,,A,]4 |] %16
V:3
 x6 | [CA]4 E-[EB] | x6 | x6 | [CE]4 z B, | z2 z2 E2 | E4 z2 |[M:2/4] x4 |[M:1/4] x2 | %9
[M:3/4] z2 z2 E2 | x6 | =D4 z2 | x6 | z2 z2 A,2 | x6 |[M:2/4] x4 |] %16
V:4
 x6 | x6 | x6 | x6 | x6 | x6 | x6 |[M:2/4] x4 |[M:1/4] x2 |[M:3/4] x6 | x6 | [B,,F,]4 z2 | x6 | %13
 A,,4 z2 | x6 |[M:2/4] x4 |] %16

